public/assets/logo.svg

<?xml version="1.0" standalone="no"?>
<!DOCTYPE svg PUBLIC "-//W3C//DTD SVG 20010904//EN"
 "http://www.w3.org/TR/2001/REC-SVG-20010904/DTD/svg10.dtd">
<svg version="1.0" xmlns="http://www.w3.org/2000/svg"
 width="1024.000000pt" height="1024.000000pt" viewBox="100 100 824 824"
 preserveAspectRatio="xMidYMid meet">

<g transform="translate(0.000000,1024.000000) scale(0.100000,-0.100000)"
fill="#00431C" stroke="none">
<path d="M4585 8050 l-28 -29 48 -58 c26 -32 62 -87 79 -123 28 -59 31 -74 31
-166 0 -95 -2 -104 -30 -150 -38 -61 -116 -110 -189 -119 -28 -3 -321 -5 -651
-3 -668 3 -643 1 -702 72 -103 125 -73 366 61 501 l44 43 -27 26 c-15 14 -31
26 -36 26 -19 0 -159 -116 -216 -179 -159 -175 -196 -431 -91 -625 33 -60 110
-147 158 -177 l34 -21 -20 -32 c-30 -49 -66 -152 -80 -231 -12 -64 -18 -77
-80 -150 -37 -44 -109 -125 -160 -180 -51 -55 -99 -114 -106 -132 -9 -21 -14
-72 -14 -148 0 -127 7 -150 60 -200 l31 -30 202 -5 c184 -5 206 -7 248 -28 98
-48 182 -148 225 -268 34 -91 44 -222 44 -546 0 -467 21 -653 96 -869 53 -152
103 -251 189 -372 42 -60 83 -123 90 -140 7 -18 39 -131 70 -252 31 -121 72
-261 91 -311 l34 -92 0 -481 0 -481 193 2 192 3 5 475 c3 261 9 482 13 491 10
20 50 39 83 39 15 0 38 -12 55 -29 l29 -29 0 -471 c0 -258 3 -471 8 -473 4 -2
91 -2 195 0 l187 3 0 470 c0 334 3 477 11 492 7 12 27 39 45 60 l34 37 0 713
0 712 179 180 c99 99 188 181 198 183 12 2 72 -52 178 -158 l160 -160 373 0
373 0 97 -93 97 -93 30 15 c56 28 114 26 175 -6 79 -42 113 -94 118 -181 3
-56 0 -74 -20 -112 -67 -125 -237 -147 -343 -45 -43 42 -65 91 -65 145 0 18
-22 47 -78 103 l-77 77 -387 0 -386 0 -121 128 -121 127 -90 -91 -90 -91 0
-437 c0 -240 3 -436 8 -436 4 0 30 15 57 33 186 124 534 287 613 287 36 0 91
-62 196 -220 49 -74 153 -227 230 -340 l141 -205 5 -550 5 -550 172 -3 171 -2
4 662 4 663 -44 83 c-24 46 -42 86 -39 88 2 3 36 -41 75 -98 38 -57 97 -137
131 -178 l61 -74 0 -573 0 -573 183 2 182 3 5 632 c3 347 8 634 11 638 8 8 88
-146 128 -247 47 -120 91 -205 127 -246 l32 -37 -5 90 c-5 74 -1 113 22 219
21 98 26 147 23 205 -5 91 -24 136 -113 275 -119 187 -109 132 -116 666 -7
498 -10 528 -65 692 -88 266 -284 502 -512 617 l-62 31 0 -375 c0 -314 -2
-381 -15 -405 -34 -67 -111 -81 -167 -31 -32 28 -33 32 -30 93 2 35 4 229 5
431 2 361 2 368 -18 372 -11 2 -42 9 -70 14 -93 20 -184 31 -442 56 -444 43
-485 58 -694 252 -53 49 -119 106 -148 126 l-51 37 0 -428 c0 -320 3 -431 12
-440 9 -9 116 -12 420 -12 l408 0 37 41 c20 22 50 48 67 56 45 24 141 21 191
-4 50 -26 68 -46 94 -103 52 -114 -2 -244 -118 -285 -87 -30 -156 -13 -225 56
l-49 49 -440 2 -441 3 -78 90 -78 90 -2 490 -3 489 -100 33 c-55 18 -110 32
-123 33 l-22 0 6 -547 6 -548 43 -37 c77 -68 97 -175 50 -268 -34 -67 -85
-100 -164 -107 -82 -8 -160 29 -202 95 -57 90 -51 175 16 250 l45 50 0 566 0
566 -125 0 -125 0 0 -724 0 -725 25 -69 c14 -39 41 -104 60 -146 l35 -77 0
-298 0 -297 30 -22 c46 -35 74 -97 75 -168 0 -122 -87 -206 -215 -205 -115 0
-200 78 -208 191 -6 80 11 121 68 173 l49 45 1 275 1 275 -63 123 -63 124 -5
620 -5 620 -117 -114 -118 -114 0 -579 0 -579 53 -52 c41 -40 56 -63 66 -100
19 -80 0 -146 -61 -204 -43 -41 -76 -53 -150 -53 -47 0 -71 6 -103 24 -126 74
-141 254 -30 343 l35 28 0 626 0 626 133 129 c73 71 168 162 210 203 l77 73 0
134 0 133 64 -30 c98 -46 167 -55 257 -35 69 15 192 75 257 125 l24 17 -79 52
c-166 109 -275 130 -433 82 -19 -5 -47 -10 -62 -10 l-28 0 0 94 0 94 228 5
c241 5 286 12 387 61 66 33 164 135 199 209 29 63 56 165 56 217 0 119 -63
270 -154 367 -48 52 -164 148 -212 176 -6 3 -24 -7 -39 -23z m-729 -1185 c-12
-32 -86 -134 -112 -154 -24 -19 -40 -21 -145 -21 -66 0 -119 3 -119 6 0 10
130 172 143 177 6 3 63 6 126 6 97 1 112 -1 107 -14z"/>
<path d="M6227 5302 c-22 -25 -21 -75 1 -95 28 -25 87 -22 106 5 22 32 20 61
-7 86 -29 27 -78 29 -100 4z"/>
<path d="M4665 5148 c-64 -56 -1 -152 74 -113 44 22 54 67 24 103 -29 34 -66
37 -98 10z"/>
<path d="M3755 4585 c-14 -13 -25 -33 -25 -45 0 -29 44 -70 75 -70 30 0 75 41
75 67 0 23 -9 35 -40 56 -34 23 -57 21 -85 -8z"/>
<path d="M6762 4344 c-32 -22 -30 -76 4 -103 15 -12 34 -21 44 -21 10 0 29 9
44 21 53 41 24 119 -44 119 -14 0 -36 -7 -48 -16z"/>
<path d="M4300 3940 c-42 -42 -10 -120 49 -120 43 0 74 30 73 71 -2 62 -78 93
-122 49z"/>
</g>
</svg>

<?xml version="1.0" encoding="utf-8"?>
<svg viewBox="100 100 824 824" xmlns="http://www.w3.org/2000/svg">
  <g transform="matrix(0.10000000149011612, 0, 0, -0.10000000149011612, 0, 1024)" fill="#00431C" stroke="none">
    <path d="M 4585 8050 L 4557 8021 L 4605 7963 C 4631 7931 4667 7876 4684 7840 C 4712 7781 4715 7766 4715 7674 C 4715 7579 4713 7570 4685 7524 C 4647 7463 4569 7414 4496 7405 C 4468 7402 4175 7400 3845 7402 C 3177 7405 3202 7403 3143 7474 C 3040 7599 3070 7840 3204 7975 L 3248 8018 L 3221 8044 C 3206 8058 3190 8070 3185 8070 C 3166 8070 3026 7954 2969 7891 C 2810 7716 2773 7460 2878 7266 C 2911 7206 2988 7119 3036 7089 L 3070 7068 L 3050 7036 C 3020 6987 2984 6884 2970 6805 C 2958 6741 2952 6728 2890 6655 C 2853 6611 2781 6530 2730 6475 C 2679 6420 2631 6361 2624 6343 C 2615 6322 2610 6271 2610 6195 C 2610 6068 2617 6045 2670 5995 L 2701 5965 L 2903 5960 C 3087 5955 3109 5953 3151 5932 C 3249 5884 3333 5784 3376 5664 C 3410 5573 3420 5442 3420 5118 C 3420 4651 3441 4465 3516 4249 C 3569 4097 3619 3998 3705 3877 C 3747 3817 3788 3754 3795 3737 C 3802 3719 3834 3606 3865 3485 C 3896 3364 3937 3224 3956 3174 L 3990 3082 L 3990 2601 L 3990 2120 L 4183 2122 L 4375 2125 L 4380 2600 C 4383 2861 4389 3082 4393 3091 C 4403 3111 4443 3130 4476 3130 C 4491 3130 4514 3118 4531 3101 L 4560 3072 L 4560 2601 C 4560 2343 4563 2130 4568 2128 C 4572 2126 4659 2126 4763 2128 L 4950 2131 L 4950 2601 C 4950 2935 4953 3078 4961 3093 C 4968 3105 4988 3132 5006 3153 L 5040 3190 L 5040 3903 L 5040 4615 L 5219 4795 C 5318 4894 5407 4976 5417 4978 C 5429 4980 5489 4926 5595 4820 L 5755 4660 L 6128 4660 L 6501 4660 L 6598 4567 L 6695 4474 L 6725 4489 C 6781 4517 6839 4515 6900 4483 C 6979 4441 7013 4389 7018 4302 C 7021 4246 7018 4228 6998 4190 C 6931 4065 6761 4043 6655 4145 C 6612 4187 6590 4236 6590 4290 C 6590 4308 6568 4337 6512 4393 L 6435 4470 L 6048 4470 L 5662 4470 L 5541 4598 L 5420 4725 L 5330 4634 L 5240 4543 L 5240 4106 C 5240 3866 5243 3670 5248 3670 C 5252 3670 5278 3685 5305 3703 C 5491 3827 5839 3990 5918 3990 C 5954 3990 6009 3928 6114 3770 C 6163 3696 6267 3543 6344 3430 L 6485 3225 L 6490 2675 L 6495 2125 L 6667 2122 L 6838 2120 L 6842 2782 L 6846 3445 L 6802 3528 C 6778 3574 6760 3614 6763 3616 C 6765 3619 6799 3575 6838 3518 C 6876 3461 6935 3381 6969 3340 L 7030 3266 L 7030 2693 L 7030 2120 L 7213 2122 L 7395 2125 L 7400 2757 C 7403 3104 7408 3391 7411 3395 C 7419 3403 7499 3249 7539 3148 C 7586 3028 7630 2943 7666 2902 L 7698 2865 L 7693 2955 C 7688 3029 7692 3068 7715 3174 C 7736 3272 7741 3321 7738 3379 C 7733 3470 7714 3515 7625 3654 C 7506 3841 7516 3786 7509 4320 C 7502 4818 7499 4848 7444 5012 C 7356 5278 7160 5514 6932 5629 L 6647.653 5743.125 L 6641.158 5001.572 C 6633.759 4584.004 6802.916 4909.248 6766.822 4914.641 C 6692.513 4925.743 6744 4799 6688 4849 C 6656 4877 6655 4881 6658 4942 C 6660 4977 6662 5171 6663 5373 C 6665 5734 6661.87 5740.804 6641.87 5744.804 C 6630.87 5746.804 6603 5754 6575 5759 C 6482 5779 6391 5790 6133 5815 C 5689 5858 5648 5873 5439 6067 C 5386 6116 5320 6173 5291 6193 L 5240 6230 L 5240 5802 C 5240 5482 5243 5371 5252 5362 C 5261 5353 5368 5350 5672 5350 L 6080 5350 L 6117 5391 C 6137 5413 6167 5439 6184 5447 C 6229 5471 6325 5468 6375 5443 C 6425 5417 6443 5397 6469 5340 C 6521 5226 6467 5096 6351 5055 C 6264 5025 6195 5042 6126 5111 L 6077 5160 L 5637 5162 L 5196 5165 L 5118 5255 L 5040 5345 L 5038 5835 L 5035 6324 L 4935 6357 C 4880 6375 4825 6389 4812 6390 L 4790 6390 L 4796 5843 L 4802 5295 L 4845 5258 C 4922 5190 4942 5083 4895 4990 C 4861 4923 4810 4890 4731 4883 C 4649 4875 4571 4912 4529 4978 C 4472 5068 4478 5153 4545 5228 L 4590 5278 L 4590 5844 L 4590 6410 L 4465 6410 L 4340 6410 L 4340 5686 L 4340 4961 L 4365 4892 C 4379 4853 4406 4788 4425 4746 L 4460 4669 L 4460 4371 L 4460 4074 L 4490 4052 C 4536 4017 4564 3955 4565 3884 C 4565 3762 4478 3678 4350 3679 C 4235 3679 4150 3757 4142 3870 C 4136 3950 4153 3991 4210 4043 L 4259 4088 L 4260 4363 L 4261 4638 L 4198 4761 L 4135 4885 L 4130 5505 L 4125 6125 L 4008 6011 L 3890 5897 L 3890 5318 L 3890 4739 L 3943 4687 C 3984 4647 3999 4624 4009 4587 C 4028 4507 4009 4441 3948 4383 C 3905 4342 3872 4330 3798 4330 C 3751 4330 3727 4336 3695 4354 C 3569 4428 3554 4608 3665 4697 L 3700 4725 L 3700 5351 L 3700 5977 L 3833 6106 C 3906 6177 4001 6268 4043 6309 L 4120 6382 L 4120 6516 L 4120 6649 L 4184 6619 C 4282 6573 4351 6564 4441 6584 C 4510 6599 4633 6659 4698 6709 L 4722 6726 L 4643 6778 C 4477 6887 4368 6908 4210 6860 C 4191 6855 4163 6850 4148 6850 L 4120 6850 L 4120 6944 L 4120 7038 L 4348 7043 C 4589 7048 4634 7055 4735 7104 C 4801 7137 4899 7239 4934 7313 C 4963 7376 4990 7478 4990 7530 C 4990 7649 4927 7800 4836 7897 C 4788 7949 4672 8045 4624 8073 C 4618 8076 4600 8066 4585 8050 Z M 3856 6865 C 3844 6833 3770 6731 3744 6711 C 3720 6692 3704 6690 3599 6690 C 3533 6690 3480 6693 3480 6696 C 3480 6706 3610 6868 3623 6873 C 3629 6876 3686 6879 3749 6879 C 3846 6880 3861 6878 3856 6865 Z"/>
    <path d="M6227 5302 c-22 -25 -21 -75 1 -95 28 -25 87 -22 106 5 22 32 20 61&#10;-7 86 -29 27 -78 29 -100 4z"/>
    <path d="M4665 5148 c-64 -56 -1 -152 74 -113 44 22 54 67 24 103 -29 34 -66&#10;37 -98 10z"/>
    <path d="M3755 4585 c-14 -13 -25 -33 -25 -45 0 -29 44 -70 75 -70 30 0 75 41&#10;75 67 0 23 -9 35 -40 56 -34 23 -57 21 -85 -8z"/>
    <path d="M6762 4344 c-32 -22 -30 -76 4 -103 15 -12 34 -21 44 -21 10 0 29 9&#10;44 21 53 41 24 119 -44 119 -14 0 -36 -7 -48 -16z"/>
    <path d="M4300 3940 c-42 -42 -10 -120 49 -120 43 0 74 30 73 71 -2 62 -78 93&#10;-122 49z"/>
  </g>
</svg>
